X:835
T:Lady Madeline Sinclair
C:Joe Buchanan's Scottish Tome - Page 405.1
I:405 1
C:William Marshall
R:Strathspey
Z:Carl Allison
L:1/8
M:4/4
K:A
f | "A"e>Ac>A c/d/e "D"f2 | "A"e>Ac>A "E7"B2 f | "A"e>Ac>A c/d/e "D"a2 | "F#m"B<B "E7"c>B "A"A2 A :|
e | "A"a>gf>e "D"((3fga) "E"((3gab) | "A"agfe a>c "E7"B2 e | "A"a>gf>e "D"((3fga) "E7"((3gab) | "A"((3agf) "E7"((3efg) "A"a2 "E7"((3efg) |
"A"a>f"E"g>e "D"f>de>c | "Bm"d<b "A"c<a "E7"B2 d | "A"((3cde) f2 ((3cde) "D"a2 | "F#m"A<A "E7"c>B "A"A2 |]
